X: 071
T: Braighe Bhanbh
T: Braes of Banffshire
T: dance: Anna's Wedding Cake [Brenda Janssen]
O: Trad, arr. Susie Petrov
R: strathspey
Z: 2001 John Chambers <jc:trillian.mit.edu>
B: Celebrate Fifty Years of Dancing with the Boston Branch RSCDS (2000) p.7
M: 4/4
L: 1/8
P: ABAB
K: F
"A"[| d |\
"F"c<F c>B A<F F<f | "F"c<F c>B A2 A<f | "F"c<F c>B A<F c>A | "Eb"B>G _E/F/G/A/ B2 Bd |
"F"c<F c>B A<F F<f | "F"c<F c>B A2 A<f | "F"c<F c>B A<F c>A | "Eb"B>G _E/F/G/A/ B2 B ||
"B"[| b |\
"F"a>f c<f A<f c<b | "F"a<f c>B A2 Ab | "F"a>f c<f A<f c<A  | "Eb"B>G _E/F/G/A/ B2 Bb |]
"F"a>f c<f A<f c<b | "F"a<f c>B "Am"A>B cf/g/ | "F"(3afa "C"(3geg "Dm"(3fed (3cBA | "Eb"B>G _E/F/G/A/ B2 B |]

%%sep 2 1 500
%%sep 1 1 500

